symbols/web/border_color/materialsymbolsrounded/border_color_wght500_40px.svg

<svg xmlns="http://www.w3.org/2000/svg" height="40" width="40"><path d="M6.25 40q-1.208 0-2.062-.854-.855-.854-.855-2.063 0-1.208.855-2.062.854-.854 2.062-.854h27.5q1.208 0 2.062.854.855.854.855 2.062 0 1.209-.855 2.063-.854.854-2.062.854Zm1.917-9.875q-.667 0-1.125-.458-.459-.459-.459-1.167v-3.708q0-.292.125-.584.125-.291.375-.541l15-15 5.959 5.958-15 15q-.25.25-.542.375-.292.125-.583.125Zm1.416-3h1.709L23.958 14.5l-1.75-1.75L9.583 25.417ZM29.75 12.917l-5.958-5.959 3.416-3.416q.5-.584 1.167-.584t1.25.584L33.083 7q.584.583.584 1.25t-.5 1.25ZM9.583 27.125Z"/></svg>

<svg xmlns="http://www.w3.org/2000/svg" height="40" width="40"><path d="M6.25 40Q5.042 40 4.188 39.146Q3.333 38.292 3.333 37.083Q3.333 35.875 4.188 35.021Q5.042 34.167 6.25 34.167H33.75Q34.958 34.167 35.812 35.021Q36.667 35.875 36.667 37.083Q36.667 38.292 35.812 39.146Q34.958 40 33.75 40ZM8.167 30.125Q7.5 30.125 7.042 29.667Q6.583 29.208 6.583 28.5V24.792Q6.583 24.5 6.708 24.208Q6.833 23.917 7.083 23.667L22.083 8.667L28.042 14.625L13.042 29.625Q12.792 29.875 12.5 30Q12.208 30.125 11.917 30.125ZM9.583 27.125H11.292L23.958 14.5L22.208 12.75L9.583 25.417ZM29.75 12.917 23.792 6.958 27.208 3.542Q27.708 2.958 28.375 2.958Q29.042 2.958 29.625 3.542L33.083 7Q33.667 7.583 33.667 8.25Q33.667 8.917 33.167 9.5ZM9.583 27.125Z"/></svg>
